!!!OTL: ES WAR EINMAL EIN FEINER KNAB
!!!ARE: Europa, Mitteleuropa, Deutschland, Bergisches Land
!!!SCT: E0093A
!!!YEM: Copyright 1995, estate of Helmut Schaffrath.
**kern
*ICvox
*Ivox
*M4/4
*k[b-]
*F:
{8f
8a
=1
4cc
4ff
4dd
4b-
=2
4cc
4e
4f}
{8f
8a
=3
4dd
4cc
4cc
8a
8f
=4
4cc
4a
4g}
{8g
8a
=5
4.b-
8cc
4a
8g
8f
=6
4ff
4dd
4.cc}
{8cc
=7
4.ee
8ee
4ff
4dd
=8
4cc
4e
4f}
==
!!!AGN: erzaehlendes Volks - Lied, Sage, Liebe, Leid, Tod, Ballade ?
!!!ONB: ESAC (Essen Associative Code) Database: ERK1
!!!AMT: simple quadruple
!!!AIN: vox
!!!EED: Helmut Schaffrath
!!!EEV: 1.0
*-
